X:1
T:Hodie Christus natus est
T:Johann Donfrid (1585-1650)
T:2 Ten. o. Cant. & Bass
T:Hodie Christus natus est
T:CPDL - Creative Commons Attribution Non Commercial 3.0
T:CPDL - Creative Commons Attribution Non Commercial 3.0
T:CPDL - Creative Commons Attribution Non Commercial 3.0
T:CPDL - Creative Commons Attribution Non Commercial 3.0
T:CPDL - Creative Commons Attribution Non Commercial 3.0
C:Johann Donfrid
Z:CPDL - Creative Commons Attribution Non Commercial 3.0
%%score [ 1 2 3 ] 4
L:1/8
Q:1/4=100
M:4/4
K:C
V:1 treble nm="Vox prima"
V:2 treble nm="Vox secunda"
V:3 bass nm="Vox tertia"
V:4 bass nm="Bassus\nGeneralis"
V:1
 d3 c B4 | c2 d2 e3 d | edec d2 e2 | d3 d c4 | B3 A G4 | A2 B2 c3 B | cBcA B2 c2 | B3 B c4 | z8 | %9
w: Ho- di- e|Chris- tus na- *||* tus est,|ho- di- e|Chris- tus na- *||* tus est.||
 z4 A4- | A2 A2 A4 | z8 | z2 d2 e2 dB | c3 c B2 B2 | c2 Bd e3 e | d2 B2 cded | cBcB AGAG | %17
w: Ho-|* di- e||Sal- va- tor ap-|pa- ru it, Sal-|va- tor ap- pa- ru-|it, ap- pa- * * *||
 ^F2 E2 F3 F | G8 |[M:3/2][Q:1/2=75] G4 G4 A4 | B4 B2 d2 ^c4 | d8 z4 | z12 | z12 | d4 d4 c4 | %25
w: * * * ru-|it.|Al- le- lu-|ia, al- le- lu-|ia,|||al- le- lu-|
 B4 B2 G2 ^F4 |[M:4/4][Q:1/4=100] G8 | A6 A2 | A2 d4 d2 | d2 d2 e4 | d2 B2 c4 | B4 z4 | z4 e2 e2 | %33
w: ia, al- le- lu-|ia.|Ho- di-|e, ho- di-|e in ter-|ra, in ter-|ra|ca- nunt|
 d3 d c4 | z4 c2 c2 | B3 B A4 | B2 AG ^F3 F | G2 d2 A4 | A2 d2 A2 A2 | z2 e2 B4 | B2 e2 B2 B2 | %41
w: An- ge- li,|ca- nunt|An- ge- li,|ca- nunt * An- ge-|li, lae- tan-|tur, lae- tan- tur,|lae- tan-|tur, lae- tan- tur|
 z2 B2 ^c2 d2- | d2 ^c2 d4- | d2 B2 AG G2- | G2 ^F2 G4 |[M:3/2][Q:1/2=75] z12 | z12 | D4 D4 E4 | %48
w: Arch- an- *|* ge- li,|_ Arch- an- * *|* ge- li.|||Al- le- lu-|
 ^F4 F2 A2 ^G4 | A8 z4 | B4 B4 A4 | G4 d2 B2 A4 |[M:4/4][Q:1/4=100] B8 | A6 A2 | A4 c4- | %55
w: ia, al- le- lu-|ia,|al- le- lu-|ia, al- le- lu-|ia.|Ho- di-|e, ho-|
 c2 c2 c4- | c2 G2 B2 B2 | d4 B2 G2 | B2 B2 d4 | c2 c2 e2 e2 | g4 e2 c2 | e2 e2 g4 | e2 e2 B2 c2 | %63
w: * di- e|_ ex- ul- tant|jus- ti, ex-|ul- tant jus-|ti, ex- ul- tant|jus- ti, ex-|ul- tant jus-|ti di- cen- *|
 B2 A4 ^G2 | A2 e2 B2 c2 | B2 A4 ^G2 | A2 d2 A2 B2 | A2 G4 ^F2 | G2 z g d2 e2 | d2 c4 B2 | %70
w: |tes, di- cen- *||tes, di- cen- *||tes, di- cen- *||
 c2 g2 d2 e2 | d2 c4 B2 | c2 d2 A2 B2 | A2 G2 A2 B2 | A2 G4 ^F2 | G4 d4 | c8- | c4 B4 | A8 | B8 | %80
w: tes, di- cen- *||tes, di- cen- *|||tes, di-|cen-|||tes:|
[M:3/2][Q:1/2=75] d6 d2 d4 | B6 B2 B4 | d6 B2 c4 | d4 e8 | d8 z4 | z12 | z12 | z12 | z12 | %89
w: Glo- ri- a,|Glo- ri- a|in ex- cel-|sis De-|o,|||||
 d6 d2 d4 | B6 B2 B4 | d6 B2 c4 | e4 d8 | e8 z4 | d6 d2 c4 | B4 A4 A4 | B6 B2 A4 | G4 G4 ^F4 | %98
w: Glo- ri- a,|Glo- ri- a|in ex- cel-|sis De-|o,|in ex- cel-|sis De- o,|in ex- cel-|sis De- *|
 G8 z4 | G4 G4 A4 | B4 B2 d2 ^c4 | d8 z4 | z12 | z12 | d4 d4 c4 | B4 B2 G2 ^F4 | G8 z4 | d4 d4 e4 | %108
w: o.|Al- le- lu-|ia, al- le- lu-|ia,|||al- le- lu-|ia, al- le- lu-|ia,|al- le- lu-|
 d8 z4 | A4 A4 B4 | A8 z4 | z12 | d4 d4 c4 | B2 B4 B2 A4 | G2 G4 G2 ^F4 |[M:4/4][Q:1/4=100] G8 | %116
w: ia,|al- le- lu-|ia,||al- le- lu-|ia, al- le- lu-|ia, al- le- lu-|ia,|
 c4 d4 | e6 d2 | c8 | B32 |] %120
w: al- le-|lu- *||ia.|
V:2
 z8 | z8 | z8 | z8 | d3 c B4 | c2 d2 e3 d | edec d2 e2 | d3 d e4 | d6 d2 | d4 z4 | z4 z2 d2 | %11
w: ||||Ho- di- e|Chris- tus na- *||* tus est.|Ho- di-|e|Sal-|
 e2 dB c3 c | B4 z4 | z4 z2 d2 | e2 dB c3 c | B2 d2 ABcd | eded cBcB | A2 G2 A3 A | B8 | %19
w: va- tor ap- pa- ru-|it,|Sal-|va- tor ap- pa- ru-|it, ap- pa- * * *||* * * ru-|it.|
[M:3/2] z12 | z12 | D4 D4 E4 | ^F4 F2 A2 ^G4 | A8 z4 | B4 B4 A4 | G4 d2 B2 A4 |[M:4/4] B8 | d6 d2 | %28
w: ||Al- le- lu-|ia, al- le- lu-|ia,|al- le- lu-|ia, al- le- lu-|ia.|Ho- di-|
 d2 A4 A2 | A2 B2 c4 | B2 d2 e4 | d4 e2 e2 | d3 d c4 | z4 c3 c | B3 B A4 | z8 | d2 cB A3 A | %37
w: e, ho- di-|e in ter-|ra, in ter-|ra ca- nunt|An- ge- li,|ca- nunt|An- ge- li,||ca- nunt * An- ge-|
 B4 z2 d2 | A4 A2 d2 | A2 A2 z2 e2 | B4 B2 e2 | B2 B2 z2 A2 | A3 A A4 | z2 d2 c3 B | A3 A B4 | %45
w: li, lae-|tan- tur, lae-|tan- tur, lae-|tan- tur, lae-|tan- tur Arch-|an- ge- li,|Arch- an- *|* ge- li.|
[M:3/2] G4 G4 A4 | B4 B2 d2 ^c4 | d8 z4 | z12 | z12 | d4 d4 c4 | B4 B2 G2 ^F4 |[M:4/4] G8 | %53
w: Al- le- lu-|ia, al- le- lu-|ia,|||al- le- lu-|ia, al- le- lu-|ia.|
 ^F6 F2 | ^F4 A4- | A2 A2 A4 | z4 z2 G2 | B2 B2 d4 | B2 G2 B2 B2 | c4 c2 c2 | e2 e2 g4 | %61
w: Ho- di-|e, ho-|* di- e|ex-|ul- tant jus-|ti, ex- ul- tant|jus- ti, ex-|ul- tant jus-|
 e2 c2 e2 e2 | g4 e2 e2 | B2 c2 B4 | A4 z2 e2 | B2 c2 B4 | A4 z2 d2 | A2 B2 A4 | G4 z2 g2 | %69
w: ti, ex- ul- tant|jus- ti di-|cen- * *|tes, di-|cen- * *|tes, di-|cen- * *|tes, di-|
 d2 e2 d4 | c4 z2 g2 | d2 e2 d4 | c4 z2 d2 | A2 B2 A2 G2 | A2 B2 A4 | G4 D4 | E2 F2 G2 E2 | %77
w: cen- * *|tes, di-|cen- * *|tes, di-|cen- * * *||tes, di-|cen- * * *|
 ^F4 G4- | G2 ^FE F4 | G8 |[M:3/2] z12 | z12 | z12 | z12 | d6 d2 d4 | B6 B2 B4 | d6 B2 c4 | d4 e8 | %88
w: ||tes:|||||Glo- ri- a,|Glo- ri- a|in ex- cel-|sis De-|
 d8 z4 | B6 B2 B4 | G6 G2 G4 | B6 G2 A2 B2 | c4 B8 | c8 z4 | B6 B2 A4 | G4 G4 ^F4 | d6 d2 c4 | %97
w: o,|Glo- ri- a,|Glo- ri- a|in ex- cel- *|sis De-|o,|in ex- cel-|sis De- o,|in ex- cel-|
 B4 A8 | B8 z4 | z12 | z12 | D4 D4 E4 | ^F4 F2 A2 ^G4 | A8 z4 | B4 B4 A4 | G4 d2 B2 A4 | B8 z4 | %107
w: sis De-|o.|||Al- le- lu-|ia, al- le- lu-|ia,|al- le- lu-|ia, al- le- lu-|ia,|
 z12 | d4 d4 e4 | d8 z4 | A4 A4 B4 | A8 z4 | B4 B4 e4 | d2 d4 d2 c4 | B2 B4 B2 A4 |[M:4/4] B8 | %116
w: |al- le- lu-|ia,|al- le- lu-|ia,|al- le- lu-|ia, al- le- lu-|ia, al- le- lu-|ia,|
 e4 d4 | c6 B2 | e8 | d32 |] %120
w: al- le-|lu- *||ia.|
V:3
 z8 | z8 | z8 | z8 | G,3 G, G,4 | F,2 D,2 C,4 | C,4 G,,4- | G,,2 G,,2 C,4 | z8 | z4 D,4- | %10
w: ||||Ho- di- e|Chris- tus na-|tus, na-|* tus est.||Ho-|
 D,2 D,2 D,4 | z8 | z2 G,2 C,2 G,G, | C,3 C, G,2 G,2 | C,2 G,G, C,3 C, | G,2 G,,2 A,,4 | %16
w: * di- e||Sal- va- tor ap-|pa- ru- it, Sal-|va- tor ap- pa- ru-|it, Sal- va-|
 A,,2 A,,2 A,,4 | D,2 E,2 D,3 D, | G,,8 |[M:3/2] z12 | z12 | D,4 D,4 ^C,4 | D,4 D,2 A,,2 E,4 | %23
w: tor, Sal- va-|tor ap- pa- ru-|it.|||Al- le- lu-|ia, al- le- lu-|
 A,,8 z4 | G,4 G,4 A,4 | G,4 G,,2 B,,2 D,4 |[M:4/4] G,,8 | z8 | z2 D,4 D,2 | D,2 G,2 C,4 | %30
w: ia,|al- le- lu-|ia, al- le- lu-|ia.||Ho- di-|e in ter-|
 G,,4 z4 | z4 C,2 C,2 | G,3 G, C,4 | z8 | z8 | G,2 G,2 D,3 D, | G,,2 G,,G,, D,3 D, | G,,4 z2 D,2 | %38
w: ra,|ca- nunt|An- ge- li|||ca- nunt An- ge-|li, ca- nunt An- ge-|li lae-|
 D,8 | A,,2 E,2 E,4 | E,8 | z2 G,,2 A,,2 D,D, | A,,3 A,, D,4- | D,2 G,,2 C,4 | D,4 G,,4 | %45
w: tan-|tur, lae- tan-|tur,|lae- tan- tur Arch-|an- ge- li,|_ Arch- an-|ge- li.|
[M:3/2] z12 | z12 | D,4 D,4 ^C,4 | D,4 D,2 A,,2 E,4 | A,,8 z4 | G,4 G,4 A,4 | G,4 G,,2 B,,2 D,4 | %52
w: ||Al- le- lu-|ia, al- le- lu-|ia,|al- le- lu-|ia, al- le- lu-|
[M:4/4] G,,8 | D,6 D,2 | D,4 A,,4- | A,,2 A,,2 A,,4- | A,,2 G,,2 G,,2 G,,2 | G,,8 | G,,4 z2 G,,2 | %59
w: ia.|Ho- di-|e, ho-|* di- e|_ ex- ul- tant|jus-|ti, ex-|
 C,2 C,2 C,4 | C,8- | C,8 | z2 E,2 E,4 | E,8 | z4 E,4 | E,8 | A,,4 z2 D,2 | D,8 | G,,4 z2 G,2 | %69
w: ul- tant jus-|ti,|_|di- cen-|tes,|di-|cen-|tes, di-|cen-|tes, di-|
 G,8 | C,4 z2 G,2 | G,8 | C,4 z2 D,2 | D,8- | D,8 | G,,4 G,,4 | C,8- | C,4 G,,4 | D,8 | G,,8 | %80
w: cen-|tes, di-|cen-|tes, di-|cen-||tes, di-|cen-|||tes:|
[M:3/2] z12 | z12 | z12 | z12 | z12 | z12 | z12 | z12 | z12 | G,6 G,2 G,4 | G,,6 G,,2 G,,4 | %91
w: |||||||||Glo- ri- a,|Glo- ri- a|
 G,6 E,2 F,4 | C,4 G,,8 | C,8 z4 | z12 | z12 | G,6 G,2 ^F,4 | G,4 D,8 | G,,12 | z12 | z12 | %101
w: in ex- cel-|sis De-|o,|||in ex- cel-|sis De-|o.|||
 D,4 D,4 ^C,4 | D,4 D,2 A,,2 E,4 | A,,8 z4 | G,4 G,4 A,4 | G,4 G,,2 B,,2 D,4 | G,,8 z4 | z12 | %108
w: Al- le- lu-|ia, al- le- lu-|ia,|al- le- lu-|ia, al- le- lu-|ia,||
 G,4 G,4 C,4 | D,8 z4 | D,4 D,4 G,,4 | D,8 z4 | G,4 G,4 C,4 | G,2 G,4 G,2 C,4 | G,2 G,,4 B,,2 D,4 | %115
w: al- le- lu-|ia,|al- le- lu-|ia,|al- le- lu-|ia, al- le- lu-|ia, al- le- lu-|
[M:4/4] G,,8 | C,4 B,,4 | C,8- | C,8 | G,,32 |] %120
w: ia,|al- le-|lu-||ia.|
V:4
 D,4 G,4 | C,2 B,,2 C,4 | C,4 G,,4- | G,,2 G,,2 C,4 | G,4 G,4 | F,2 D,2 C,4 | C,4 G,,4- | %7
 G,,2 G,,2 C,4 | G,,6 G,,2 | G,,A,,B,,C, D,4- | D,2 D,2 D,4 | C,2 G,2 C,4 | G,4 C,2 G,2 | C,4 G,4 | %14
 C,2 G,2 C,4 | G,2 G,,2 (A,,4 | A,,8) | D,2 E,2 D,4 | G,,8 |[M:3/2] G,4 G,4 ^F,4 | %20
 G,4 G,2 D,2 A,,4 | D,4 D,4 ^C,4 | D,4 D,2 A,,2 E,4 | A,,12 | G,4 G,4 A,4 | G,4 G,,2 B,,2 D,4 | %26
[M:4/4] G,,8 | D,6 D,2 | D,8 | D,2 G,2 C,4 | G,,4 C,4 | G,,4 C,4 | G,4 C,4 | G,4 C,4 | G,4 ^F,4 | %35
 G,4 D,4 | G,,4 D,3 D, | G,,4 D,4 | D,8 | A,,2 E,2 E,4 | E,8 | E,2 G,,2 A,,2 D,2 | A,,4 D,4- | %43
 D,2 G,,2 C,4 | D,4 G,,4 |[M:3/2] G,4 G,4 ^F,4 | G,4 G,2 D,2 A,,4 | D,4 D,4 ^C,4 | %48
 D,4 D,2 A,,2 E,4 | A,,12 | G,4 G,4 A,4 | G,4 G,,2 B,,2 D,4 |[M:4/4] G,,8 | D,6 D,2 | D,4 A,,4- | %55
 A,,2 A,,2 A,,4- | A,,2 G,,2 G,,4 | (G,,8 | G,,8) | (C,8 | (C,8) | C,8) | C,2 E,2 E,4 | E,8 | %64
 A,,4 E,4 | E,8 | A,,4 D,4 | D,8 | G,,4 G,4 | G,8 | C,4 G,4 | G,8 | C,4 D,4 | (D,8 | D,8) | %75
 G,,4 G,,4 | C,8- | C,4 G,,4 | D,8 | G,,8 |[M:3/2] G,6 G,2 G,4 | G,,6 G,,2 G,,4 | G,6 E,2 F,4 | %83
 D,4 C,8 | G,12 | G,,6 G,,2 G,,4 | G,6 E,2 F,4 | D,4 C,8 | G,,12 | G,6 G,2 G,4 | G,,6 G,,2 G,,4 | %91
 G,6 E,2 F,4 | C,4 G,,8 | C,12 | G,6 G,2 ^F,4 | G,4 D,8 | G,,8 ^F,,4 | G,,4 D,8 | G,,12 | %99
 G,4 G,4 ^F,4 | G,4 G,2 D,2 A,,4 | D,4 D,4 ^C,4 | D,4 D,2 A,,2 E,4 | A,,12 | G,4 G,4 A,4 | %105
 G,4 G,,2 B,,2 D,4 | G,,12 | G,8 C,4 | G,8 C,4 | D,8 G,,4 | D,8 G,,4 | D,12 | G,4 G,4 C,4 | %113
 G,2 G,4 G,2 C,4 | G,2 G,,4 B,,2 D,4 |[M:4/4] G,,8 | C,4 B,,4 | (C,8 | C,8) | G,,32 |] %120

